!!!!SEGMENT: pl-wnifc--493-n--012_oginski-michal-kleofas--16-polonaises-12-polonaise-in-a.krn
!!!cenid: 18xx:3871
!!!COM: Ogiński, Michał Kleofas
!!!COM-rismID: pe30002379
!!!CDT: 1765/09/25-1833/10/15
!!!CNT:
!!!OTL: 16 Polonaises
!!!PDT: 1864
!!!AGN:
!!!SMS-siglum: PL-Wnifc
!!!SMS-shelfmark: 493/n
!!!SMS-shelfwork: 012 W
!!!SMS-variant:
!!!SMS-altvar:
!!!NIFC-rismSourceID: 1001157350
!!!NIFC-rismChildID: 1001157364
!!!NIFC-islandoraID: nifc:212371
!!!URL-pdf-islandora: https://repozytorium.nifc.pl/islandora/object/nifc%3A212371/datastream/PDF/view
!!!URL-scan: https://polish.musicsources.pl/pl/lokalizacje/galeria/druki-muzyczne/16843 @EN{Scan on Polish Music Sources Website} @PL{Skany w portalu Dziedzictwo Muzyki Polskiej w otwartym dostępie}
!!!ONB-nifc: UWAGA: w zbiorze znajduje się 14 Polonezów z Triami, pliki są numerowane jak w źródle.
!!!AIN: 2 piano
!!!key: a
!!!OMD:
!!!OMD-mod: Moderato tristamente
**kern	**kern	**dynam
*part2	*part1	*part1
*staff2	*staff1	*
*I"Piano.	*I"Piano.	*
*mI"Pianoforte	*mI"Pianoforte	*
*I'[pf]	*I'[pf]	*
*Ipiano	*Ipiano	*
*ICklav	*ICklav	*
*clefF4	*clefG2	*
*k[]	*k[]	*
*a:	*a:	*
*M3/4	*M3/4	*
=1	=1	=1
!	!LO:TX:a:B:t=Moderato tristamente.:mod=	!
8AA\L	8ee\	mf
8c 8A 8E\	4ee^\	.
8c 8A 8E\	.	.
8cJ 8A 8E\	16dd#X\LL	.
.	16ee\JJ	.
8AA\L	8ff\L	.
8cJ 8A 8E\	8ee\J	.
=2	=2	=2
8AA\L	8.ccM\L	.
8cJ 8A 8E\	.	.
.	16b\Jk	.
8cL 8A 8E\	([>4a/	.
8c 8A 8E\	.	.
8c 8A 8E\	16a\LL]	.
.	16b\	.
8cJ 8A 8E\	16cc\	.
.	16dd\JJ)	.
=3	=3	=3
*^	*	*
!	!LO:MO:mod=!null:null	!	!
!	!LO:N:vis=2	!	!
2C/	8C\L	8ee\	.
.	8A 8E\	4ee^\	.
.	8A 8E\	.	.
.	.	(16qqff/LL	.
.	.	16qqee/JJ)	.
.	8AJ 8E\	16dd#X\LL	.
.	.	16ee\JJ	.
4C#X/	8C#\L	(8.aa\L	.
.	8AJ 8E\	.	.
.	.	16ee\Jk)	.
!!LO:LB:g=original
=4	=4	=4	=4
!	!LO:MO:mod=!null:null	!	!
!	!LO:N:vis=2	!	!
2D/	8D\L	(8.gg^\L	.
.	8d 8A\	.	.
.	.	16ff#X\Jk	.
.	8d 8A\	4.ffn\)	.
.	8dJ 8A\	.	.
4D/	8D\L	.	.
.	8dJ 8A 8F\	8dd\	.
=5	=5	=5	=5
.	.	8qdd/	.
!	!LO:MO:mod=!null:null	!	!
!	!LO:N:vis=2	!	!
2E/	8E\L	(8.bb^\L	.
.	8d 8B\	.	.
.	.	16aa\Jk)	.
.	8d 8B\	(8.gg#X^\L	.
.	8dJ 8B\	.	.
.	.	16ff\Jk)	.
4E/	8E\L	(8.ee^\L	.
.	8dJ 8G#X\	.	.
.	.	16dd#X\Jk)	.
=6	=6	=6	=6
8AA\L	2rEEyyyy	(16ee\LL	.
.	.	16ff\	.
8c 8A 8E\	.	16ee\	.
.	.	16ddn\JJ	.
8c 8A 8E\	.	4cc\)	.
8cJ 8A 8E\	.	.	.
4C/	8C\L	8r	.
.	8AJ 8E\	8a/	.
=7	=7	=7	=7
!	!LO:MO:mod=!null:null	!	!
!	!LO:N:vis=2	!	!
2D/	8D\L	8b'\L	.
.	8B 8F\	([8b\J	.
.	8B 8F\	16b\LL]	.
.	.	(16dd\	.
.	8BJ 8F\	16ff\)	.
.	.	(16ee\JJ	.
4D/	8D\L	16dd\LL)	.
.	.	(16cc\	.
.	8BJ 8F\	16b\)	.
.	.	16a\JJ)	.
*v	*v	*	*
!!LO:LB:g=original
=8	=8	=8
8E\L	(16g#X\LL	.
.	16b\	.
8dJ 8B 8E\	16ee\	.
.	16gg#X\JJ)	.
8r	(4bb^\	.
!LO:SIC:s=(8dL 8G#X 8E\:v	!	!
(8dL 8G#X ((8E\	.	.
!LO:SIC:s=8cJ 8A\):v	!	!
8cJ 8A\)))	8aa\)	.
!	!LO:MO:mod=!LO&colon;TX&colon;a&colon;i&colon;t=Fine	!
!	!LO:TX:a:t=Fine	!
8r	8r	.
=9:|!	=9:|!	=9:|!
8EE/L	8ee\	p
!	!LO:MO:mod=!LO&colon;TX&colon;b&colon;i&colon;t=espress.	!
!	!LO:TX:b:i:t=espress.	!
!	!LO:MO:mod=!null:null	!
!	!LO:TUP:a	!
8E/J	(24ee\LL	.
.	24gg#X\	.
.	24bb\JJ	.
8BL 8G#X\	4.eee\	.
8E\	.	.
8B 8G#\	.	.
8E\J	8ddd\)	.
=10	=10	=10
8EE/L	(4.ccc\	.
8E/J	.	.
8cL 8A\	.	.
8E\	16fff\LL	.
.	16eee\JJ	.
8c 8A\	16ddd\LL	.
.	16ccc\	.
8E\J	16bb\	.
.	16aa\JJ)	.
=11	=11	=11
8EE/L	(16gg#X\LL	.
.	16ee\	.
8E/J	16gg#\	.
.	16bb\JJ	.
8BL 8G#X\	4.eee\	.
8E\	.	.
8B 8G#\	.	.
8E\J	8ddd\)	.
!!LO:LB:g=original
=12	=12	=12
8EE/L	(4.ccc\	.
8E/J	.	.
8cL 8A\	.	.
8E\	16fff\LL	.
.	16eee\JJ	.
8c 8A\	16ddd\LL	.
.	16ccc\	.
8E\J	16bb\	.
.	16aa\JJ)	.
=13	=13	=13
4e 4B 4E;\	4gg#X;\	.
4r	(16e/LL	.
.	16g#X/	.
.	16b/	.
.	16a/JJ	.
4r	16g#\LL	.
.	16b\	.
.	16dd\	.
.	16cc\JJ)	.
=14	=14	=14
2.r	(16b\LL	<
.	16dd\	.
.	16ff\	.
.	16ee\JJ	.
.	16dd\LL	.
.	16gg#X\	.
.	16bb\	.
.	16aa\JJ	.
.	16gg#\LL	.
.	16bb\)	.
.	16.fff;\	.
.	32eee\JJk	[[
=15	=15	=15
8.AL 8.E 8.C 8.AA\	8.eeeL 8.ee\	f
16B\Jk	16ddd#XJk 16dd#X\	.
8c\L	8eeeL 8ee\	.
8d\	8fff 8ff\	.
8c\	8eee 8ee\	.
8B\J	8dddnJ 8ddn\	.
!!LO:PB:g=original
=16	=16	=16
8AL 8AA\	8.cccL 8.cc\	.
8cJ 8A 8E\	.	.
.	16bbJk 16b\	.
8cL 8A 8E\	4.aa 4.a\	.
8c 8A 8E\	.	.
8c 8A 8E\	.	.
8cJ 8A 8E\	8ccc 8cc\	.
=17	=17	=17
8EL 8EE\	8bbL 8b\	.
8dJ 8B 8E\	(16bb\L	.
.	16eee\JJ)	.
8dL 8B 8E\	(4.ee\	.
8d 8B 8E\	.	.
8d 8B 8E\	.	.
8dJ 8B 8E\	8gg#X\)	.
=18	=18	=18
8AA\L	(16aa\LL	.
.	16gg#X\	.
8cJ 8A 8E\	16aa\	.
.	16bb\JJ)	.
8cL 8A 8E\	(16ccc\LL	.
.	16bb\	.
8c 8A 8E\	16ccc\	.
.	16ddd\JJ)	.
8c 8A 8E\	(8eee\L	.
8cJ 8A 8E\	8ccc\J)	.
=19	=19	=19
8EL 8EE\	8bb\L	.
8dJ 8B 8E\	(16bb\L	.
.	16eee\JJ)	.
8dL 8B 8E\	(4.ee\	.
8d 8B 8E\	.	.
8d 8B 8E\	.	.
8dJ 8B 8E\	8gg#X\)	.
=20	=20	=20
8cL 8A\	(16aa\LL	.
.	16gg#X\	.
8dJ 8G#X 8E\	16ccc\	.
.	16bb\JJ)	.
8r	(4bb (4dd\	.
8EL 8EE/	.	.
8EJ 8AA/	8aa 8cc\))	.
8r	8r	.
!!LO:LB:g=original
=21:|!	=21:|!	=21:|!
!!!OMD:
!!!OMD-mod: Trio
!	!LO:TX:a:B:t=Trio.:mod=	!
8cL 8G 8C\	8ccL 8g 8e/	f
16cL 16G 16C\	16ccL 16g 16e/	.
16cJJ 16G 16C\	16ccJJ 16g 16e/	.
8cL 8G 8C\	8ccL 8g 8e/	.
8cJ 8G 8C\	8ccJ 8e/	.
8dL 8G\	8ddL 8b 8g\	.
8dJ 8G\	8ddJ 8b 8g\	.
=22	=22	=22
8eL 8c\	8eeL 8cc 8g\	.
16eL 16c\	16eeL 16cc 16g\	.
16eJJ 16c\	16eeJJ 16cc 16g\	.
8eL 8c\	8eeL 8cc 8g\	.
8eJ 8c\	8eeJ 8cc 8g\	.
8BL 8G\	8ddL 8g 8f/	.
8BJ 8G\	8ddJ 8g 8f/	.
=23	=23	=23
8cL 8G 8C\	8ccL 8g 8e/	.
16cL 16G 16C\	16ccL 16g 16e/	.
16cJJ 16G 16C\	16ccJJ 16g 16e/	.
8cL 8G 8C\	8ccL 8g 8e/	.
8c 8C\	8ee 8g/	.
8A 8D\	8dd 8f#X/	.
8AJ 8D\	8ccJ 8f#/	.
!!LO:LB:g=original
=24	=24	=24
8G\L	8bL 8g'\	.
8BJ 8G\	(16b\L	.
.	16cc\JJ)	.
8cL 8F#X 8D\	8a'/L	.
8cJ 8F# 8D\	(16a/L	.
.	16b/JJ)	.
4B 4G\	4g/	.
=25	=25	=25
*	*8va	*
!	!LO:MO:mod=!LO&colon;TX&colon;a&colon;i&colon;t=dolce	!
!	!LO:TX:b:i:t=dolce.	!
8C\L	[4ccc\	p
8G\J	.	.
8eL 8c\	16ccc\LL]	.
.	(16gg\	.
8G\	16aa\	.
.	16bb\JJ	.
8e 8c\	16ccc\LL	.
.	16ddd\	.
8G\J	16eee\	.
.	16ccc\JJ	.
=26	=26	=26
8GG\L	8.bb\L)	.
8G\J	.	.
.	16ddd\Jk	.
8fL 8d\	8.fff\L	.
8G\	.	.
.	(<16gg\Jk	.
8f 8d\	16ff#X/LL	.
.	16gg/	.
8G\J	16aa/	.
.	16bb/JJ)	.
!!LO:LB:g=original
=27	=27	=27
8C\L	[4ccc\	.
8G\J	.	.
8eL 8c\	16ccc\LL]	.
.	(16gg\	.
8G\	16aa\	.
.	16bb\JJ	.
8e 8c\	16ccc\LL	.
.	16ddd\	.
8G\J	16eee\	.
.	16ccc\JJ	.
=28	=28	=28
8GG\L	8.bb\L)	.
8G\J	.	.
.	16ddd\Jk	.
8fL 8d\	8.fff\L	.
8G\	.	.
.	(16gg\Jk	.
8f 8d\	16ff#X/LL	.
.	16gg/	.
8G\J	16aa/	.
.	16bb/JJ	.
=29	=29	=29
16C\LL	8.ccc\L)	f
16G\	.	.
16E\	.	.
16G\JJ	16ddd\Jk	.
16C\LL	8eee\L	.
16G\	.	.
16E\	8ggg\	.
16G\JJ	.	.
16BB\LL	8fff\	.
16G\	.	.
16D\	8ddd\J	.
16G\JJ	.	.
!!LO:LB:g=original
=30	=30	=30
16C\LL	8.eee\L	.
16G\	.	.
16E\	.	.
16G\JJ	16ddd#X\Jk	.
16C\LL	8eee\L	.
16G\	.	.
16E\	8ggg\	.
16G\JJ	.	.
16BB\LL	8fff\	.
16G\	.	.
16D\	8dddn\J	.
16G\JJ	.	.
=31	=31	=31
16C\LL	(8.eee\L	.
16G\	.	.
16E\	.	.
16G\JJ	16ddd\Jk	.
16E\LL	16ccc\LL	.
16c\	16bb\	.
16G\	16ddd\	.
16c\JJ	16ccc\JJ	.
*	*X8va	*
16F\LL	16bb\LL	.
16d\	16aa\	.
16A\	16gg\	.
16d\JJ	16ff\JJ)	.
=32	=32	=32
8G\L	(16ee\LL	.
.	16gg\	.
8fJ 8B 8G\	16ff\	.
.	16dd\JJ)	.
8r	(4dd\	.
!LO:MO:mod=!null:null	!	!
!LO:TX:b:i:t=Da Capo al Fine.	!	!
!LO:SIC:s=(8fL 8B 8G\:v	!	!
(8fL 8B ((8G\	.	.
!	!LO:MO:mod=!LO&colon;TX&colon;a&colon;i&colon;t=D.C. al Fine	!
!	!null	!
!LO:SIC:s=8eJ 8c\):v	!	!
8eJ 8c\)))	8cc\)	.
8r	8r	.
=:|!	=:|!	=:|!
*-	*-	*-
!!!RDF**kern: > = above
!!!RDF**kern: < = below
!!!system-decoration: [(s1,s2)]
!!!system-decoration-mod: {(s1,s2)}
!!!filter-modern: sic -sq | shed -e "s/LO:DY:(a|b|rj)/LO:dy:$1/L" | shed -e "s/TX(.*):t=P:/tx$1:t=P:/LG" | modori -m | autostem -r | shed -e "s/yy//" | shed -k -e "s/[<>]//g"
!!!ENC: Solarz Mateusz
!!!END: 2022-07-25
!!!ENC: Urszula Świątek
!!!END: 2022-08-22
!!!EED-modern: Antoni Szymański
!!!END-modern: 2022-09-12
!!!YEC: Copyright 2022 Narodowy Instytut Fryderyka Chopina (https://polishscores.org)
!!!YEM: License CC-BY-4.0 (https://creativecommons.org/licenses/by/4.0)
